images/portal/4233.svg

<?xml version="1.0" standalone="no"?><!DOCTYPE svg PUBLIC "-//W3C//DTD SVG 1.1//EN" "http://www.w3.org/Graphics/SVG/1.1/DTD/svg11.dtd"><svg xmlns:xlink="http://www.w3.org/1999/xlink" version="1.1" class="highcharts-root" style="font-family:arial;font-size:9pt;" xmlns="http://www.w3.org/2000/svg" width="485" height="415"><desc>Created with Highstock 5.0.14</desc><defs><clipPath id="highcharts-39ccj2o-7"><rect x="0" y="0" width="438" height="254" fill="none"></rect></clipPath><clipPath id="highcharts-39ccj2o-8"><rect x="0" y="0" width="438" height="254" fill="none"></rect></clipPath></defs><rect fill="#fbfbfb" class="highcharts-background" x="0" y="0" width="485" height="415" rx="0" ry="0"></rect><rect fill="none" class="highcharts-plot-background" x="37" y="90" width="438" height="254"></rect><g class="highcharts-label" style="cursor:pointer;" transform="translate(10,451)"><text x="0" y="0"><tspan>&gt; Indikator-Details</tspan></text></g><g class="highcharts-pane-group"></g><g class="highcharts-grid highcharts-xaxis-grid "><path fill="none" class="highcharts-grid-line" d="M 44.5 90 L 44.5 344" opacity="1"></path><path fill="none" class="highcharts-grid-line" d="M 78.5 90 L 78.5 344" opacity="1"></path><path fill="none" class="highcharts-grid-line" d="M 112.5 90 L 112.5 344" opacity="1"></path><path fill="none" class="highcharts-grid-line" d="M 146.5 90 L 146.5 344" opacity="1"></path><path fill="none" class="highcharts-grid-line" d="M 179.5 90 L 179.5 344" opacity="1"></path><path fill="none" class="highcharts-grid-line" d="M 213.5 90 L 213.5 344" opacity="1"></path><path fill="none" class="highcharts-grid-line" d="M 247.5 90 L 247.5 344" opacity="1"></path><path fill="none" class="highcharts-grid-line" d="M 280.5 90 L 280.5 344" opacity="1"></path><path fill="none" class="highcharts-grid-line" d="M 314.5 90 L 314.5 344" opacity="1"></path><path fill="none" class="highcharts-grid-line" d="M 348.5 90 L 348.5 344" opacity="1"></path><path fill="none" class="highcharts-grid-line" d="M 381.5 90 L 381.5 344" opacity="1"></path><path fill="none" class="highcharts-grid-line" d="M 415.5 90 L 415.5 344" opacity="1"></path><path fill="none" class="highcharts-grid-line" d="M 449.5 90 L 449.5 344" opacity="1"></path></g><g class="highcharts-grid highcharts-yaxis-grid "><path fill="none" stroke="#e6e6e6" stroke-width="1" class="highcharts-grid-line" d="M 37 344.5 L 475 344.5" opacity="1"></path><path fill="none" stroke="#e6e6e6" stroke-width="1" class="highcharts-grid-line" d="M 37 293.5 L 475 293.5" opacity="1"></path><path fill="none" stroke="#e6e6e6" stroke-width="1" class="highcharts-grid-line" d="M 37 242.5 L 475 242.5" opacity="1"></path><path fill="none" stroke="#e6e6e6" stroke-width="1" class="highcharts-grid-line" d="M 37 192.5 L 475 192.5" opacity="1"></path><path fill="none" stroke="#e6e6e6" stroke-width="1" class="highcharts-grid-line" d="M 37 141.5 L 475 141.5" opacity="1"></path><path fill="none" stroke="#e6e6e6" stroke-width="1" class="highcharts-grid-line" d="M 37 89.5 L 475 89.5" opacity="1"></path></g><g class="highcharts-grid highcharts-yaxis-grid "></g><rect fill="none" class="highcharts-plot-border" x="37" y="90" width="438" height="254"></rect><g class="highcharts-axis highcharts-xaxis "><path fill="none" class="highcharts-axis-line" stroke="#ccd6eb" stroke-width="1" d="M 37 344.5 L 475 344.5"></path></g><g class="highcharts-axis highcharts-yaxis "><path fill="none" class="highcharts-axis-line" d="M 37 90 L 37 344"></path></g><g class="highcharts-axis highcharts-yaxis "><path fill="none" class="highcharts-axis-line" d="M 475 90 L 475 344"></path></g><g class="highcharts-series-group"><g class="highcharts-series highcharts-series-0 highcharts-line-series highcharts-color-undefined " transform="translate(37,90) scale(1 1)" clip-path="url(#highcharts-39ccj2o-8)"><path fill="none" d="M -25.269230769231 55.879999999999995 L -8.4230769230769 46.73600000000002 L 8.4230769230769 61.976 L 25.269230769231 53.84800000000001 L 42.115384615385 65.02399999999997 L 58.961538461538 76.19999999999999 L 75.807692307692 74.168 L 92.653846153846 79.24800000000002 L 109.5 89.40800000000002 L 126.34615384615 85.344 L 143.19230769231 92.45599999999999 L 160.03846153846 94.488 L 176.88461538462 100.584 L 193.73076923077 108.71199999999999 L 210.57692307692 86.35999999999999 L 227.42307692308 92.45599999999999 L 244.26923076923 83.31199999999998 L 261.11538461538 96.52000000000001 L 277.96153846154 98.55199999999999 L 294.80769230769 96.52000000000001 L 311.65384615385 99.56800000000001 L 328.5 100.584 L 345.34615384615 93.47199999999998 L 362.19230769231 91.44 L 379.03846153846 99.56800000000001 L 395.88461538462 98.55199999999999 L 412.73076923077 102.61599999999999 L 429.57692307692 95.50399999999999" class="highcharts-graph" stroke="#FF8028" stroke-width="2" stroke-linejoin="round" stroke-linecap="round"></path></g><g class="highcharts-markers highcharts-series-0 highcharts-line-series highcharts-color-undefined " transform="translate(37,90) scale(1 1)" clip-path="none"></g></g><text x="10" text-anchor="start" class="highcharts-title" style="color:#000000;font-size:1.1em;font-weight:bold;fill:#000000;" y="20"><tspan>Wasserverbrauch Haushalte und Kleingewerbe</tspan></text><text x="10" text-anchor="start" class="highcharts-subtitle" style="color:#000000;font-size:0.9em;fill:#000000;" y="38"><tspan>Millionen Kubikmeter</tspan></text><g class="highcharts-legend" transform="translate(10,40)"><rect fill="none" class="highcharts-legend-box" rx="0" ry="0" x="0" y="0" width="148" height="38" visibility="visible"></rect><g><g><g class="highcharts-legend-item highcharts-line-series highcharts-color-undefined highcharts-series-0" transform="translate(12,7)"><path fill="none" d="M 0 11 L 16 11" class="highcharts-graph" stroke="#FF8028" stroke-width="2"></path><text x="21" style="color:#333333;font-size:1em;font-weight:normal;cursor:pointer;fill:#333333;" text-anchor="start" y="15"><tspan>Kanton Basel-Stadt</tspan></text></g></g></g></g><g class="highcharts-axis-labels highcharts-xaxis-labels "><text x="45.42307692307692" style="color:#000000;cursor:default;font-size:0.9em;fill:#000000;" text-anchor="middle" transform="translate(0,0)" y="363" opacity="1">1991</text><text x="79.11538461538461" style="color:#000000;cursor:default;font-size:0.9em;fill:#000000;" text-anchor="middle" transform="translate(0,0)" y="363" opacity="1">1993</text><text x="112.8076923076923" style="color:#000000;cursor:default;font-size:0.9em;fill:#000000;" text-anchor="middle" transform="translate(0,0)" y="363" opacity="1">1995</text><text x="146.5" style="color:#000000;cursor:default;font-size:0.9em;fill:#000000;" text-anchor="middle" transform="translate(0,0)" y="363" opacity="1">1997</text><text x="180.1923076923077" style="color:#000000;cursor:default;font-size:0.9em;fill:#000000;" text-anchor="middle" transform="translate(0,0)" y="363" opacity="1">1999</text><text x="213.8846153846154" style="color:#000000;cursor:default;font-size:0.9em;fill:#000000;" text-anchor="middle" transform="translate(0,0)" y="363" opacity="1">2001</text><text x="247.5769230769231" style="color:#000000;cursor:default;font-size:0.9em;fill:#000000;" text-anchor="middle" transform="translate(0,0)" y="363" opacity="1">2003</text><text x="281.26923076923083" style="color:#000000;cursor:default;font-size:0.9em;fill:#000000;" text-anchor="middle" transform="translate(0,0)" y="363" opacity="1">2005</text><text x="314.96153846153845" style="color:#000000;cursor:default;font-size:0.9em;fill:#000000;" text-anchor="middle" transform="translate(0,0)" y="363" opacity="1">2007</text><text x="348.65384615384613" style="color:#000000;cursor:default;font-size:0.9em;fill:#000000;" text-anchor="middle" transform="translate(0,0)" y="363" opacity="1">2009</text><text x="382.3461538461538" style="color:#000000;cursor:default;font-size:0.9em;fill:#000000;" text-anchor="middle" transform="translate(0,0)" y="363" opacity="1">2011</text><text x="416.03846153846155" style="color:#000000;cursor:default;font-size:0.9em;fill:#000000;" text-anchor="middle" transform="translate(0,0)" y="363" opacity="1">2013</text><text x="449.7307692307692" style="color:#000000;cursor:default;font-size:0.9em;fill:#000000;" text-anchor="middle" transform="translate(0,0)" y="363" opacity="1">2015</text></g><g class="highcharts-axis-labels highcharts-yaxis-labels "><text x="22" style="color:#000000;cursor:default;font-size:0.9em;fill:#000000;" text-anchor="end" transform="translate(0,0)" y="349" opacity="1"><tspan>0</tspan></text><text x="22" style="color:#000000;cursor:default;font-size:0.9em;fill:#000000;" text-anchor="end" transform="translate(0,0)" y="298" opacity="1"><tspan>5</tspan></text><text x="22" style="color:#000000;cursor:default;font-size:0.9em;fill:#000000;" text-anchor="end" transform="translate(0,0)" y="247" opacity="1"><tspan>10</tspan></text><text x="22" style="color:#000000;cursor:default;font-size:0.9em;fill:#000000;" text-anchor="end" transform="translate(0,0)" y="196" opacity="1"><tspan>15</tspan></text><text x="22" style="color:#000000;cursor:default;font-size:0.9em;fill:#000000;" text-anchor="end" transform="translate(0,0)" y="145" opacity="1"><tspan>20</tspan></text><text x="22" style="color:#000000;cursor:default;font-size:0.9em;fill:#000000;" text-anchor="end" transform="translate(0,0)" y="95" opacity="1"><tspan>25</tspan></text></g><g class="highcharts-axis-labels highcharts-yaxis-labels "></g><text x="10" class="highcharts-credits" text-anchor="start" style="cursor:default;color:#000000;font-size:0.8em;fill:#000000;" y="400"><tspan>Quelle: Industrielle Werke Basel (IWB); Amt für Umweltschutz und Energie Basel-Landschaft</tspan></text></svg>

<svg class="highcharts-root" xmlns="http://www.w3.org/2000/svg" viewBox="0 0 485 415" font-family="Arial" font-size="12">
    <defs>
        <clipPath id="a">
            <path fill="none" d="M0 0h438v254H0z"/>
        </clipPath>
    </defs>
    <rect fill="#fbfbfb" class="highcharts-background" width="485" height="415" rx="0" ry="0"/>
    <path fill="none" class="highcharts-plot-background" d="M37 90h438v254H37z"/>
    <text transform="translate(10 451)" class="highcharts-label" cursor="pointer">
        <tspan>&gt; Indikator-Details</tspan>
    </text>
    <g class="highcharts-grid highcharts-xaxis-grid">
        <path fill="none" class="highcharts-grid-line" d="M44.5 90v254m0-254v254m34-254v254m0-254v254m34-254v254m0-254v254m34-254v254m0-254v254m33-254v254m0-254v254m34-254v254m0-254v254m34-254v254m0-254v254m33-254v254m0-254v254m34-254v254m0-254v254m34-254v254m0-254v254m33-254v254m0-254v254m34-254v254m0-254v254m34-254v254m0-254v254"/>
    </g>
    <g class="highcharts-grid highcharts-yaxis-grid">
        <path fill="none" stroke="#e6e6e6" class="highcharts-grid-line" d="M37 344.5h438m-438-51h438m-438-51h438m-438-50h438m-438-51h438m-438-52h438"/>
    </g>
    <path fill="none" class="highcharts-plot-border" d="M37 90h438v254H37z"/>
    <g class="highcharts-axis highcharts-xaxis">
        <path fill="none" class="highcharts-axis-line" stroke="#ccd6eb" d="M37 344.5h438"/>
    </g>
    <g class="highcharts-axis highcharts-yaxis">
        <path fill="none" class="highcharts-axis-line" d="M37 90v254"/>
    </g>
    <g class="highcharts-axis highcharts-yaxis">
        <path fill="none" class="highcharts-axis-line" d="M475 90v254"/>
    </g>
    <g class="highcharts-series-group">
        <g class="highcharts-series highcharts-series-0 highcharts-line-series highcharts-color-undefined" transform="translate(37 90)" clip-path="url(#a)">
            <path fill="none" d="M-25.27 55.88l16.847-9.144 16.846 15.24 16.846-8.128 16.846 11.176L58.962 76.2l16.846-2.032 16.846 5.08 16.846 10.16 16.846-4.064 16.846 7.112 16.846 2.032 16.847 6.096 16.846 8.128 16.846-22.352 16.846 6.096 16.846-9.144 16.846 13.208 16.847 2.032 16.846-2.032 16.846 3.048 16.846 1.016 16.846-7.112 16.846-2.032 16.846 8.128 16.847-1.016 16.846 4.064 16.846-7.112" class="highcharts-graph" stroke="#FF8028" stroke-width="2" stroke-linejoin="round" stroke-linecap="round"/>
            <path fill="none" d="M-35.27 55.88h10l16.847-9.144 16.846 15.24 16.846-8.128 16.846 11.176L58.962 76.2l16.846-2.032 16.846 5.08 16.846 10.16 16.846-4.064 16.846 7.112 16.846 2.032 16.847 6.096 16.846 8.128 16.846-22.352 16.846 6.096 16.846-9.144 16.846 13.208 16.847 2.032 16.846-2.032 16.846 3.048 16.846 1.016 16.846-7.112 16.846-2.032 16.846 8.128 16.847-1.016 16.846 4.064 16.846-7.112h10" stroke-linejoin="round" stroke="rgba(192,192,192,0.0001)" stroke-width="22" class="highcharts-tracker"/>
        </g>
    </g>
    <text x="10" class="highcharts-title" y="20" color="#000" font-size="1.1em" font-weight="700">
        <tspan>Wasserverbrauch Haushalte und Kleingewerbe</tspan>
    </text>
    <text x="10" class="highcharts-subtitle" y="38" color="#000" font-size=".9em">
        <tspan>Millionen Kubikmeter</tspan>
    </text>
    <g class="highcharts-legend" transform="translate(10 40)">
        <rect fill="none" class="highcharts-legend-box" rx="0" ry="0" width="148" height="38"/>
        <g class="highcharts-legend-item highcharts-line-series highcharts-color-undefined highcharts-series-0">
            <path fill="none" d="M12 18h16" class="highcharts-graph" stroke="#FF8028" stroke-width="2"/>
            <text x="21" y="15" color="#333" font-size="1em" font-weight="400" cursor="pointer" fill="#333" transform="translate(12 7)">
                <tspan>Kanton Basel-Stadt</tspan>
            </text>
        </g>
    </g>
    <g class="highcharts-axis-labels highcharts-xaxis-labels" text-anchor="middle" color="#000" cursor="default" font-size=".9em">
        <text x="45.423" y="366">
            1991
        </text>
        <text x="79.115" y="366">
            1993
        </text>
        <text x="112.808" y="366">
            1995
        </text>
        <text x="146.5" y="366">
            1997
        </text>
        <text x="180.192" y="366">
            1999
        </text>
        <text x="213.885" y="366">
            2001
        </text>
        <text x="247.577" y="366">
            2003
        </text>
        <text x="281.269" y="366">
            2005
        </text>
        <text x="314.962" y="366">
            2007
        </text>
        <text x="348.654" y="366">
            2009
        </text>
        <text x="382.346" y="366">
            2011
        </text>
        <text x="416.038" y="366">
            2013
        </text>
        <text x="449.731" y="366">
            2015
        </text>
    </g>
    <g class="highcharts-axis-labels highcharts-yaxis-labels" text-anchor="end" color="#000" cursor="default" font-size=".9em">
        <text x="22" y="349">
            <tspan>0</tspan>
        </text>
        <text x="22" y="298">
            <tspan>5</tspan>
        </text>
        <text x="22" y="247">
            <tspan>10</tspan>
        </text>
        <text x="22" y="196">
            <tspan>15</tspan>
        </text>
        <text x="22" y="145">
            <tspan>20</tspan>
        </text>
        <text x="22" y="95">
            <tspan>25</tspan>
        </text>
    </g>
    <text x="10" class="highcharts-credits" y="400" cursor="default" color="#000" font-size=".8em">
        <tspan>Quelle: Industrielle Werke Basel (IWB); Amt für Umweltschutz und Energie Basel-Landschaft</tspan>
    </text>
</svg>
